assets/Tent/Flat/tent_flat.svg

<svg width="32" height="32" viewBox="0 0 32 32" fill="none" xmlns="http://www.w3.org/2000/svg">
<path d="M28.6091 13.4087C29.1117 12.7014 28.6045 12.2189 27.7372 12.2435C27.6941 12.2447 27.6508 12.2453 27.6074 12.2453C25.1221 12.2453 23.1448 10.2323 23.1448 7.74702C23.1448 7.51961 23.2616 7.02361 23.2942 6.80525C23.4221 5.94728 22.8867 5.39999 22.1243 5.81381C20.4089 6.7449 18.818 8.41894 18.818 10.5079C18.818 13.5455 21.3032 15.7955 24.3408 15.7955C26.1926 15.7955 27.6125 14.8115 28.6091 13.4087Z" fill="#FFB02E"/>
<path d="M2.94454 29.9999H9.07587L12.7545 28.8492L16.4332 29.9999C17.2929 29.9999 18.0786 29.4772 18.3898 28.6932L23.8149 14.8855C23.978 14.479 23.6667 14.0435 23.222 14.0435H8.28071C8.01391 14.0435 7.77675 14.2032 7.68781 14.45L2.06999 28.7658C1.818 29.3465 2.27752 29.9999 2.94454 29.9999Z" fill="#44911B"/>
<path d="M18.3898 28.6788L23.8149 14.8712C23.978 14.4646 23.6667 14.0291 23.222 14.0291H10.7858C10.519 14.0291 10.2818 14.1888 10.1929 14.4356L4.08588 30H9.08605L12.148 29.2374L16.4481 30C17.293 30 18.0786 29.4773 18.3898 28.6788Z" fill="#86D72F"/>
<path d="M9.09603 29.9999H16.4333C16.4926 29.9999 16.5519 29.9709 16.6111 29.9709V16.4827H9.08122V29.9999H9.09603Z" fill="#1C1C1C"/>
<path d="M7.89539 14.1597L13.6021 28.6788C13.9134 29.4773 14.6842 29.9855 15.5587 29.9855H29.0474C29.7145 29.9855 30.174 29.3321 29.9368 28.7223L24.319 14.4066C24.23 14.1597 23.9929 14 23.7261 14H23.2369H8.29561C8.13256 14.029 7.99915 14.0871 7.89539 14.1597Z" fill="#86D72F"/>
<path d="M20.9838 22.6245H18.0045C17.6191 22.6245 17.2781 22.3922 17.1299 22.0437L15.8848 18.9802C15.6328 18.3704 16.0923 17.717 16.7593 17.717H19.7387C20.1241 17.717 20.465 17.9493 20.6133 18.2978L21.8584 21.3613C22.1104 21.9711 21.6509 22.6245 20.9838 22.6245Z" fill="#44911B"/>
</svg>

<svg xmlns="http://www.w3.org/2000/svg" width="32" height="32" fill="none"><path fill="#FFB02E" d="M28.61 13.409c.502-.708-.005-1.19-.873-1.166a4.665 4.665 0 0 1-.13.002c-2.485 0-4.462-2.013-4.462-4.498 0-.227.117-.723.15-.942.127-.858-.408-1.405-1.17-.991-1.716.93-3.307 2.605-3.307 4.694 0 3.038 2.485 5.288 5.523 5.288 1.852 0 3.271-.984 4.268-2.387Z"/><path fill="#44911B" d="M2.945 30h6.13l3.68-1.15L16.433 30c.86 0 1.646-.523 1.957-1.307l5.425-13.808c.163-.406-.148-.841-.593-.841H8.281a.623.623 0 0 0-.593.406L2.07 28.766c-.252.58.208 1.234.875 1.234Z"/><path fill="#86D72F" d="m18.39 28.679 5.425-13.808c.163-.406-.148-.842-.593-.842H10.786a.623.623 0 0 0-.593.407L4.086 30h5l3.062-.763 4.3.763c.845 0 1.63-.523 1.942-1.321Z"/><path fill="#1C1C1C" d="M9.096 30h7.337c.06 0 .119-.03.178-.03V16.484h-7.53V30h.015Z"/><path fill="#86D72F" d="m7.895 14.16 5.707 14.519c.311.798 1.082 1.306 1.957 1.306h13.488c.668 0 1.127-.653.89-1.263l-5.618-14.315a.623.623 0 0 0-.593-.407H8.296a.998.998 0 0 0-.4.16Z"/><path fill="#44911B" d="M20.984 22.625h-2.98a.95.95 0 0 1-.874-.581l-1.245-3.064c-.252-.61.207-1.263.874-1.263h2.98a.95.95 0 0 1 .874.58l1.245 3.064c.252.61-.207 1.264-.874 1.264Z"/></svg>
